flaticon/business/cart-2.svg

<svg xmlns="http://www.w3.org/2000/svg" width="32" height="32" viewBox="0 0 24 24">
    <path d="M 2.800781 4.800781 L 2.800781 1.601562 C 2.800781 1.378906 2.621094 1.199219 2.398438 1.199219 L 0.398438 1.199219 C 0.179688 1.199219 0 1.378906 0 1.601562 C 0 1.820312 0.179688 2 0.398438 2 L 2 2 L 2 18.800781 C 2 19.019531 2.179688 19.199219 2.398438 19.199219 L 5.210938 19.199219 C 4.722656 19.566406 4.398438 20.144531 4.398438 20.800781 C 4.398438 21.902344 5.296875 22.800781 6.398438 22.800781 C 7.503906 22.800781 8.398438 21.902344 8.398438 20.800781 C 8.398438 20.144531 8.078125 19.566406 7.585938 19.199219 L 16.011719 19.199219 C 15.523438 19.566406 15.199219 20.144531 15.199219 20.800781 C 15.199219 21.902344 16.097656 22.800781 17.199219 22.800781 C 18.304688 22.800781 19.199219 21.902344 19.199219 20.800781 C 19.199219 20.144531 18.878906 19.566406 18.386719 19.199219 L 20.800781 19.199219 C 21.019531 19.199219 21.199219 19.019531 21.199219 18.800781 C 21.199219 18.578125 21.019531 18.398438 20.800781 18.398438 L 2.800781 18.398438 L 2.800781 15.199219 L 24 15.199219 L 24 4.800781 Z M 6.398438 22 C 5.738281 22 5.199219 21.460938 5.199219 20.800781 C 5.199219 20.136719 5.738281 19.601562 6.398438 19.601562 C 7.0625 19.601562 7.601562 20.136719 7.601562 20.800781 C 7.601562 21.460938 7.0625 22 6.398438 22 Z M 17.199219 22 C 16.539062 22 16 21.460938 16 20.800781 C 16 20.136719 16.539062 19.601562 17.199219 19.601562 C 17.863281 19.601562 18.398438 20.136719 18.398438 20.800781 C 18.398438 21.460938 17.863281 22 17.199219 22 Z M 2.800781 8.800781 L 23.199219 8.800781 L 23.199219 11.199219 L 2.800781 11.199219 Z M 23.199219 8 L 2.800781 8 L 2.800781 5.601562 L 23.199219 5.601562 Z M 2.800781 14.398438 L 2.800781 12 L 23.199219 12 L 23.199219 14.398438 Z M 2.800781 14.398438"/>
</svg>

<svg xmlns="http://www.w3.org/2000/svg" width="32" height="32" viewBox="0 0 24 24">
    <path d="M2.8 4.8V1.603a.402.402 0 0 0-.402-.403h-2a.401.401 0 0 0 0 .801H2v16.8a.4.4 0 0 0 .398.4h2.813a2.004 2.004 0 0 0-.813 1.6c0 1.102.899 2 2 2a1.993 1.993 0 1 0 1.188-3.602l8.426.001a2.004 2.004 0 0 0-.813 1.602c0 1.101.899 2 2 2a1.993 1.993 0 1 0 1.188-3.602H20.8a.4.4 0 0 0 0-.8h-18v-3.2H24V4.801zM6.399 22a1.2 1.2 0 1 1 0-2.398A1.2 1.2 0 0 1 7.602 20.8c0 .66-.54 1.199-1.204 1.199zM17.2 22a1.2 1.2 0 1 1 0-2.398 1.2 1.2 0 0 1 0 2.398zM2.801 8.8h20.398v2.4H2.801zM23.199 8H2.801V5.602h20.398zM2.801 14.398V12h20.398v2.398zm0 0"/>
</svg>
